X: 12
T:Llanover Reel
% Nottingham Music Database
S:Helen, via EF
M:4/4
L:1/4
K:G
"G"dd d/2c/2B/2A/2|"C"ee e/2d/2c/2B/2|"G"dd d/2c/2B/2A/2|\
"D"F/2G/2A/2B/2 c/2B/2A/2G/2|
"G"dd d/2c/2B/2A/2|"C"ee e/2d/2c/2B/2|"C"G/2e/2c/2G/2 "D"F/2c/2A/2F/2|"G"BG G2:|
"G"d/2B/2G/2B/2 dd|"C"e/2c/2G/2c/2 ee|"G"d/2B/2G/2B/2 dd|"D"c/2A/2F/2A/2 cc|
"G"d/2B/2G/2B/2 dd|"C"e/2c/2G/2c/2 ee|"C"G/2g/2f/2e/2 "D7"d/2c/2B/2A/2|"G"GB G2 :|<end>
<start>
